X: 20340
T: John Brosnan's
R: polka
M: 2/4
K: Gmajor
|:G>A B/^c/d|ef ga/g/|ed Bd|e/f/e/d/ Bd|
G>A B/^c/d|ef ga/g/|ed BA|G2 G2:|
|:g>f ed|ef ga/g/|ed Bd|e/f/e/d/ Bd|
g>f ed|ef ga/g/|ed BA|G2 G2:|

